packages/icons/brands/YouTube.svg

<svg width="24" height="24" viewBox="0 0 24 24" xmlns="http://www.w3.org/2000/svg">
<g>
        <path
            d="M10 16.7847V9.78467L16 13.2967L10 16.7847ZM23.76 8.45167C23.76 8.45167 23.525 6.78667 22.806 6.05267C21.893 5.08967 20.87 5.08567 20.401 5.02967C17.043 4.78467 12.005 4.78467 12.005 4.78467H11.995C11.995 4.78467 6.957 4.78467 3.599 5.02967C3.129 5.08567 2.107 5.08967 1.193 6.05267C0.474 6.78667 0.24 8.45267 0.24 8.45267C0.24 8.45267 0 10.4067 0 12.3617V14.1967C0 16.1527 0.24 18.1087 0.24 18.1087C0.24 18.1087 0.474 19.7737 1.193 20.5077C2.107 21.4707 3.306 21.4397 3.84 21.5407C5.76 21.7277 12 21.7847 12 21.7847C12 21.7847 17.043 21.7767 20.401 21.5327C20.871 21.4757 21.893 21.4717 22.806 20.5087C23.526 19.7747 23.76 18.1087 23.76 18.1087C23.76 18.1087 24 16.1537 24 14.1977V12.3637C24 10.4077 23.76 8.45167 23.76 8.45167V8.45167Z"
            fill="#FF0000"
        />
    </g>
</svg>

<svg xmlns="http://www.w3.org/2000/svg" width="24" height="24">
    <path fill="red" d="M10 16.785v-7l6 3.512-6 3.488Zm13.76-8.333s-.235-1.665-.954-2.4c-.913-.962-1.936-.966-2.405-1.022-3.358-.245-8.396-.245-8.396-.245h-.01s-5.038 0-8.396.245c-.47.056-1.492.06-2.406 1.023-.719.734-.953 2.4-.953 2.4S0 10.407 0 12.362v1.835c0 1.956.24 3.912.24 3.912s.234 1.665.953 2.399c.914.963 2.113.932 2.647 1.033 1.92.187 8.16.244 8.16.244s5.043-.008 8.401-.252c.47-.057 1.492-.061 2.405-1.024.72-.734.954-2.4.954-2.4s.24-1.955.24-3.911v-1.834c0-1.956-.24-3.912-.24-3.912Z"/>
</svg>
